chrome/icons/tools.svg

<svg height="16" viewBox="32 0 864 1024" width="16" xmlns="http://www.w3.org/2000/svg" xmlns:xlink="http://www.w3.org/1999/xlink">
  <path d="M544,230.5C544,269.5 535.583,306.417 518.75,341.25C501.917,376.083 478.333,405.667 448,430L448,867.5C448,889.167 443.667,909.5 435,928.5C426.333,947.5 414.667,964.083 400,978.25C385.333,992.417 368.333,1003.58 349,1011.75C329.667,1019.92 309.333,1024 288,1024C265.667,1024 244.833,1019.83 225.5,1011.5C206.167,1003.17 189.25,991.75 174.75,977.25C160.25,962.75 148.833,945.833 140.5,926.5C132.167,907.167 128,886.333 128,864L128,430C97.6667,405.667 74.0833,376.083 57.25,341.25C40.4167,306.417 32,269.5 32,230.5C32,208.167 34.9167,186.083 40.75,164.25C46.5833,142.417 55,121.75 66,102.25C77,82.7501 90.4167,64.9167 106.25,48.75C122.083,32.5834 140,19.1667 160,8.5C165.333,5.83337 170.5,3.75 175.5,2.25C180.5,0.75 186,0 192,0C201,0 209.333,1.66669 217,5C224.667,8.33337 231.417,12.9167 237.25,18.75C243.083,24.5834 247.667,31.3334 251,39C254.333,46.6667 256,55.0001 256,64L256,198.5L320,198.5L320,64C320,55.0001 321.667,46.6667 325,39C328.333,31.3334 332.917,24.5834 338.75,18.75C344.583,12.9167 351.333,8.33337 359,5C366.667,1.66669 375,0 384,0C390,0 395.5,0.75 400.5,2.25C405.5,3.75 410.667,5.83337 416,8.5C435.667,19.1667 453.417,32.5834 469.25,48.75C485.083,64.9167 498.5,82.7501 509.5,102.25C520.5,121.75 529,142.5 535,164.5C541,186.5 544,208.5 544,230.5ZM896,544L896,867.5C896,889.167 891.667,909.5 883,928.5C874.333,947.5 862.667,964.083 848,978.25C833.333,992.417 816.333,1003.58 797,1011.75C777.667,1019.92 757.333,1024 736,1024C714.667,1024 694.333,1019.92 675,1011.75C655.667,1003.58 638.667,992.417 624,978.25C609.333,964.083 597.667,947.5 589,928.5C580.333,909.5 576,889.167 576,867.5L576,544C576,536.667 577.417,530.917 580.25,526.75C583.083,522.583 586.75,519.417 591.25,517.25C595.75,515.083 600.75,513.667 606.25,513C611.75,512.333 617.333,512 623,512L640,512L640,199.5C638,195.833 635.25,190.75 631.75,184.25C628.25,177.75 624.75,171 621.25,164C617.75,157 614.667,150.25 612,143.75C609.333,137.25 608,132 608,128C608,124.333 609.5,117.583 612.5,107.75C615.5,97.9167 618.833,87.4167 622.5,76.25C626.167,65.0834 629.833,54.4167 633.5,44.25C637.167,34.0834 639.833,26.6667 641.5,22C643.5,15.6667 647.417,10.4167 653.25,6.25C659.083,2.08337 665.333,0 672,0L800,0C807,0 813.25,2 818.75,6C824.25,10 828.167,15.3334 830.5,22C831.833,26.6667 834.417,34.0834 838.25,44.25C842.083,54.4167 845.833,65.0834 849.5,76.25C853.167,87.4167 856.5,97.9167 859.5,107.75C862.5,117.583 864,124.333 864,128C864,132 862.667,137.25 860,143.75C857.333,150.25 854.25,157 850.75,164C847.25,171 843.75,177.75 840.25,184.25C836.75,190.75 834,195.833 832,199.5L832,512L849,512C854.667,512 860.25,512.333 865.75,513C871.25,513.667 876.25,515.083 880.75,517.25C885.25,519.417 888.917,522.583 891.75,526.75C894.583,530.917 896,536.667 896,544ZM384,396.5C399,388.167 412.417,378 424.25,366C436.083,354 446.167,340.833 454.5,326.5C462.833,312.167 469.167,296.833 473.5,280.5C477.833,264.167 480,247.5 480,230.5C480,195.167 471.583,163.083 454.75,134.25C437.917,105.417 414.333,82.0001 384,64L384,262.5L192,262.5L192,64C161.667,82.0001 138.083,105.417 121.25,134.25C104.417,163.083 96,195.167 96,230.5C96,247.5 98.1667,264.167 102.5,280.5C106.833,296.833 113.167,312.167 121.5,326.5C129.833,340.833 139.917,354 151.75,366C163.583,378 177,388.167 192,396.5L192,864C192,877 194.5,889.333 199.5,901C204.5,912.667 211.417,922.917 220.25,931.75C229.083,940.583 239.333,947.5 251,952.5C262.667,957.5 275,960 288,960C301,960 313.333,957.5 325,952.5C336.667,947.5 346.917,940.583 355.75,931.75C364.583,922.917 371.5,912.667 376.5,901C381.5,889.333 384,877 384,864ZM704,512L768,512L768,192C768,187 769.167,182.167 771.5,177.5L797.5,125.5L777,64L695,64L674.5,125.5L700.5,177.5C702.833,182.167 704,187 704,192ZM640,576L640,640L832,640L832,576ZM832,864L832,704L640,704L640,864C640,877 642.5,889.333 647.5,901C652.5,912.667 659.417,922.917 668.25,931.75C677.083,940.583 687.333,947.5 699,952.5C710.667,957.5 723,960 736,960C749,960 761.333,957.5 773,952.5C784.667,947.5 794.917,940.583 803.75,931.75C812.583,922.917 819.5,912.667 824.5,901C829.5,889.333 832,877 832,864Z" fill="context-fill" fill-opacity="context-fill-opacity">
  </path>
</svg>

<svg xmlns="http://www.w3.org/2000/svg" width="16" height="16" viewBox="32 0 864 1024"><path fill="context-fill" fill-opacity="context-fill-opacity" d="M544 230.5q0 58.5-25.25 110.75T448 430v437.5q0 32.5-13 61t-35 49.75c-14.667 14.167-31.667 25.33-51 33.5S309.333 1024 288 1024c-22.333 0-43.167-4.17-62.5-12.5s-36.25-19.75-50.75-34.25Q153 955.5 140.5 926.5T128 864V430q-45.5-36.5-70.75-88.75T32 230.5q0-33.5 8.75-66.25t25.25-62 40.25-53.5T160 8.5q8-4 15.5-6.25T192 0q13.5 0 25 5t20.25 13.75T251 39t5 25v134.5h64V64q0-13.5 5-25t13.75-20.25T359 5t25-5q9 0 16.5 2.25T416 8.5q29.5 16 53.25 40.25t40.25 53.5T535 164.5t9 66M896 544v323.5q0 32.5-13 61t-35 49.75c-14.667 14.167-31.667 25.33-51 33.5S757.333 1024 736 1024s-41.667-4.08-61-12.25-36.333-19.333-51-33.5Q602 957 589 928.5t-13-61V544q0-11 4.25-17.25t11-9.5 15-4.25 16.75-1h17V199.5q-3-5.5-8.25-15.25T621.25 164 612 143.75 608 128q0-5.5 4.5-20.25t10-31.5a1174 1174 0 0 1 11-32 8495 8495 0 0 0 8-22.25q3-9.5 11.75-15.75T672 0h128q10.5 0 18.75 6t11.75 16q2 7 7.75 22.25t11.25 32 10 31.5T864 128q0 6-4 15.75T850.75 164t-10.5 20.25T832 199.5V512h17q8.5 0 16.75 1t15 4.25 11 9.5T896 544M384 396.5q22.5-12.5 40.25-30.5t30.25-39.5 19-46 6.5-50q0-53-25.25-96.25T384 64v198.5H192V64q-45.5 27-70.75 70.25T96 230.5q0 25.5 6.5 50t19 46 30.25 39.5T192 396.5V864q0 19.5 7.5 37t20.75 30.75T251 952.5t37 7.5 37-7.5 30.75-20.75T376.5 901t7.5-37ZM704 512h64V192q0-7.5 3.5-14.5l26-52L777 64h-82l-20.5 61.5 26 52q3.5 7 3.5 14.5Zm-64 64v64h192v-64Zm192 288V704H640v160q0 19.5 7.5 37t20.75 30.75T699 952.5t37 7.5 37-7.5 30.75-20.75T824.5 901t7.5-37"/></svg>
